X: 370
T: Jacob Hall's Jigg
P: Longways for as many as will
%R: jig
B: "The Dancing-Master: Containing Directions and Tunes for Dancing" printed by W. Pearson for John Walsh, London ca. 1709
S: 7: DMDfD http://digital.nls.uk/special-collections-of-printed-music/pageturner.cfm?id=89751228 p.182
Z: 2013 John Chambers <jc:trillian.mit.edu>
M: 6/4
L: 1/8
K: Dm
% - - - - - - - - - - - - - - - - - - - - - - - - -
[|\
a4d2 (d3c/d/)e2 | ^c6 A4A2 | d4c2 c4B2 | A6 F4A2 |\
G4G2 G2A2E2 | F4G2 E4C2 | D4E2 E4D2 | C6 A,6 |]
e2 |\
e4f2 f4e2 | d2e2c2 B4A2 | A4G2 G4F2 | F6 f3ef2 |\
g4e2 ^c3de2 | f4e2 d3c=B2 | (c3B/c/)d2 =B4A2 | A6- A4a2 |
b4g2 e3fg2 | a3ba2 g3fe2 | f4f2 (g3f/g/)a2 | b6- b4(gf/g/) |\
a4e2 ^c3de2 | f4e2 ^c3BA2 | (f3e/f/)g2 e4d2 | d6- d4 |]
% - - - - - - - - - - - - - - - - - - - - - - - - -
%%begintext align
%% The 1. man turn the 2. wo. by the right-hand once round, then take the 1. wo. by the left, and all three
%% hands quite round .| The 2. man turn the 1. wo. by the left-hand once round, then take the 2. wo. by
%% the right, and all three hands quite round :| The 1. cu, lead down the middle, and then up, then all
%% four hands a-breast and lead up, the 1. cu. fall in the middle, and all four hands quite round till the
%% 1. cu. comes into the 2. cu. place, then lead through and cast off .|
%% [DMDfD]
%%endtext
%%sep 1 8 500

%%sep 1 1 500
%%sep 1 1 500
